X: 1
T: Michael's Cs\'ard\'as
R: csardas
Z: John Chambers <jc@trillian.mit.edu> http://trillian.mit.edu/~jc/music/
N: Play block chords, one per beat,
M: 4/4
L: 1/8
K: D
P: Moderato
[| "D"DD DD "A7"EF GF | "D"ED- "A7"DC "D"D4 \
 | "A"AA AA "E7"Bc dc | "A"BA- "E7"A^G "A"A4 ||
|: "D"AA AA "G"B2 "A7"c2 | "D"d2 "G"G2 "D"F2 "A"E2 \
 | "D"DD DD "A7"EF GF | "D"ED- "A7"DC "D"D4 :|
P: Faster
|| "D"DC DE FA dB | "Em"G2 E2 "A7"B2 A2 | "D"D2 "A7"DC "D"D4 \
 | "D"dd Ad "A"cd ef | "E7"e3 B e d3 | "A"A2 "E7"A^G "A"A4 ||
|: "G"d3 c d e3 | d2 B2 "D"A4 | "G"B3 c "B7"d B3 | "Em"G2 "D"F2 "A7"E4 \
 | "D"DC DE FA dB | "Em"G2 E2 "A7"B2 A2 | "D"D2 "A7"DC "D"D4 :|
